X: 38077
T: Spitfire, The
R: reel
M: 4/4
K: Amajor
|:e2|a2ed cBAc|BAGB A2AF|EFGA BcdB|cBAc B2e2|
a2ed cBAc|BAGB A2AF|EFGA BcdB|cABG A2:|
|:ef|ecAc ecfc|ecAc ecac|ecAc ecfc|dcBc d2ef|
ecAc ecfc|ecAc ecac|agfe dcBA|1 GABc d2:|2 GABc A2||

